!!!!SEGMENT: pl-sa--76-a-ii-16--001_hasse-johann-adolf--coronam-franciscae-date.krn
!!!cenid: 17xx:390
!!!COM: Hasse, Johann Adolf
!!!COM-rismid: pe51928
!!!CDT: 1699/03/25-1783/12/16
!!!CNT: German
!!!OTL: Coronam Franciscae date
!!!PDT:
!!!AGN: Sacred
!!!SMS-siglum: PL-SA
!!!SMS-shelfmark: 76/A II 16
!!!SMS-shelfwork: 001 W
!!!NIFC-rismid: 1001069519
!!!URL-scan: http://bc.bdsandomierz.pl/dlibra/publication/1353/edition/1321/content
!!!ONB-nifc:
**kern	**dynam	**kern	**dynam	**kern	**dynam	**kern	**dynam	**kern	**text
*part5	*part5	*part4	*part4	*part3	*part3	*part2	*part2	*part1	*part1
*group1	*	*group1	*	*group1	*	*group1	*	*	*
*staff5	*	*staff4	*	*staff3	*	*staff2	*	*staff1	*staff1
*Iempty	*	*Iviola	*	*Ivioln	*	*Ivioln	*	*Ivox	*
*I"Bafso.	*	*I"Viola	*	*I"Violino 2do	*	*I"Violino Primo	*	*I"Canto Solo.	*
*I'B	*	*I'vla	*	*I'vl 2	*	*I'vl 1	*	*I'S	*
*clefF4	*	*clefC3	*	*clefG2	*	*clefG2	*	*clefC1	*
*k[f#c#g#]	*	*k[f#c#g#]	*	*k[f#c#g#]	*	*k[f#c#g#]	*	*k[f#c#g#]	*
*A:	*	*A:	*	*A:	*	*A:	*	*A:	*
*M3/4	*	*M3/4	*	*M3/4	*	*M3/4	*	*M3/4	*
=1	=1	=1	=1	=1	=1	=1	=1	=1	=1
*all\right	*	*all\right	*	*all\right	*	*	*	*	*
!LO:TX:b:t=Coronam francisce	!	!	!	!	!	!	!	!LO:TX:a:t=P:problem:krzyżyki f# cc# jeden nad drugim, potem g#	!
!LO:TX:a:B:t=Un. poco. Lente.	!	!LO:TX:a:B:t=Uno. poco. Lente.	!	!LO:TX:a:Bi:t=Un poco lente	!	!LO:TX:a:Bi:t=Un poco lente	!	!LO:TX:a:t=18	!
!LO:TX:a:B:t=ARIA. 1ma.	!	!LO:TX:a:B:t=1ma.	!	!LO:TX:a:B:t=1ma\n Aria	!	!LO:TX:a:t=Aria 1.ma.	!	!LO:TX:a:t=ARIA	!
!	!	!	!	!	!	!	!	!LO:N:vis=00	!
8A\L	.	8c#\L	.	4ee\	.	4ee\	.	0.r	.
8A\	.	8c#\	.	.	.	.	.	.	.
8A\	.	8c#\	.	(16dd\LL	.	16dd\LL	.	.	.
.	.	.	.	16cc#\)	.	16cc#\	.	.	.
8A\	.	8c#\	.	(16b\	.	16b\	.	.	.
.	.	.	.	16a\JJ)	.	16a\JJ	.	.	.
.	.	.	.	8qqcc#/	.	8qqcc#/	.	.	.
8A\	.	8d\	.	8b/L	.	8b\L	.	.	.
.	.	.	.	8qqa/	.	8qqb/	.	.	.
8A\J	.	8B\J	.	8g#/J	.	8a\J	.	.	.
=2	=2	=2	=2	=2	=2	=2	=2	=2	=2
.	.	.	.	8qqg#/	.	8qqg#/	.	.	.
8A\L	.	8c#\L	.	4a/	.	4a/	.	.	.
8A\	.	8c#\	.	.	.	.	.	.	.
8A\	.	8c#\	.	4.e/	.	4.e/	.	.	.
8A\	.	8c#\J	.	.	.	.	.	.	.
8A\	.	8c#/L	.	.	.	.	.	.	.
!	!	!	!	!LO:N:vis=8	!	!	!	!	!
8A\J	.	16B/L	.	16d/LL	.	16d/LL	.	.	.
!	!	!	!	!LO:N:vis=8	!	!	!	!	!
.	.	16A/JJ	.	16c#/JJ	.	16c#/JJ	.	.	.
=3	=3	=3	=3	=3	=3	=3	=3	=3	=3
8A\L	.	8d\L	.	8f#/L	.	8f#/L	.	.	.
8A\	.	8.d\J	.	8.f#/J	.	8.f#/J	.	.	.
8A\	.	.	.	.	.	.	.	.	.
.	.	16d\LL	.	16f#/LL	.	16f#/LL	.	.	.
8A\	.	16e\	.	16gn/	.	16gn/	.	.	.
.	.	16d\JJ	.	16f#/JJ	.	16f#/JJ	.	.	.
!	!	!	!	!LO:TX:a:t=P:problem:mixed beam	!	!LO:TX:a:t=P:problem:mixed beam	!	!	!
8A\	.	8f#\L	.	8dd\L	.	8dd\L	.	.	.
8A\J	.	8d\J	.	8f#/J	.	8f#/J	.	.	.
=4	=4	=4	=4	=4	=4	=4	=4	=4	=4
8A\L	.	8d\L	.	4f#/	.	4f#/	.	.	.
8A\	.	8d\	.	.	.	.	.	.	.
8A\	.	8c#\	.	[4e/	.	[4e/	.	.	.
8A\	.	8c#\	.	.	.	.	.	.	.
8A\	.	8c#\	.	16.e/LL]	.	16.e/LL]	.	.	.
.	.	.	.	32a/K	.	32a/K	.	.	.
8A\J	.	8c#\J	.	16.b/	.	16.b/	.	.	.
.	.	.	.	32cc#/JJk	.	32cc#/JJk	.	.	.
=5	=5	=5	=5	=5	=5	=5	=5	=5	=5
!	!	!LO:TX:a:t=P:problem:mixed beam	!	!	!	!	!	!LO:N:vis=00	!
8A\L	.	8B/L	.	8dd\L	.	8dd\L	.	0.r	.
8A\	.	8B/	.	[8dd\J	.	8dd\J	.	.	.
8A\	.	8b\	.	16.dd\LL]	.	16.dd\LL	.	.	.
.	.	.	.	32dd\K	.	32dd\K	.	.	.
8A\	.	8b\	.	16.ee\	.	16.ee\	.	.	.
.	.	.	.	32dd\JJk	.	32dd\JJk	.	.	.
8G#\	.	8e\	.	8bb\L	.	8bb\L	.	.	.
8G#\J	.	8e\J	.	8dd\J	.	8dd\J	.	.	.
=6	=6	=6	=6	=6	=6	=6	=6	=6	=6
8A\L	.	8e\L	.	8dd\L	.	8dd\L	.	.	.
8A\	.	8e\	.	8cc#\J	.	[8cc#\J	.	.	.
8A\	.	8e\	.	16.cc#\LL	.	16.cc#\LL]	.	.	.
.	.	.	.	32cc#\K	.	32cc#\K	.	.	.
8A\	.	8a\	.	16.ee\	.	16.dd\	.	.	.
.	.	.	.	32cc#\JJk	.	32cc#\JJk	.	.	.
8A\	.	8cc#\	.	8aa\L	.	8aa\L	.	.	.
8A\J	.	8e\J	.	8cc#\J	.	8cc#\J	.	.	.
!LO:LB:g=original	!	!LO:LB:g=original	!	!LO:LB:g=original	!	!LO:LB:g=original	!	!	!
=7	=7	=7	=7	=7	=7	=7	=7	=7	=7
8D\L	.	8f#\L	.	8cc#\L	.	8cc#t\L	.	.	.
8D\	.	8f#\	.	[8b\J	.	8b\J	.	.	.
8D\	.	8f#\	.	16.b\LL]	.	16.b\LL	.	.	.
!	!	!	!	!LO:N:vis=16	!	!	!	!	!
.	.	.	.	32b\K	.	32b\K	.	.	.
8D\	.	8f#\	.	16.cc#\	.	16.cc#\	.	.	.
!	!	!	!	!LO:N:vis=16	!	!	!	!	!
.	.	.	.	32b\JJk	.	32b\JJk	.	.	.
!	!	!	!	!LO:TX:a:t=P:problem:mixed beam	!	!LO:TX:a:t=P:problem:mixed beam	!	!	!
8D#X\	.	8f#\	.	8ff#\L	.	8ff#\L	.	.	.
8D#\J	.	8f#\J	.	8f#/J	.	8f#/J	.	.	.
=8	=8	=8	=8	=8	=8	=8	=8	=8	=8
!	!	!LO:TX:a:t=P:problem:mixed beam	!	!	!	!	!	!	!
8E\L	.	8B/L	.	8a/	.	8a/	.	.	.
8E\	.	8B/	.	4g#/	.	4g#/	.	.	.
8E\	.	8B/	.	.	.	.	.	.	.
8E\	.	8a\	.	8ff#\L	.	8ff#\L	.	.	.
8E\	.	8g#\	.	8ee\	.	8ee\	.	.	.
8E\J	.	8f#\J	.	8dd#X\J	.	8dd#X\J	.	.	.
=9	=9	=9	=9	=9	=9	=9	=9	=9	=9
.	.	8qqf#/	.	.	.	.	.	.	.
!	!	!	!	!	!	!	!	!LO:N:vis=00	!
8E\L	.	4.e\	.	32ee\KLL	.	32ee\KLL	.	0.r	.
!	!	!	!	!	!	!LO:N:vis=16	!	!	!
.	.	.	.	16.a\JJ	.	16.a\JJ	.	.	.
.	.	.	.	8qqa/	.	8qqa/	.	.	.
8E\	.	.	.	4g#/	.	4g#/	.	.	.
8E\	.	.	.	.	.	.	.	.	.
8E\	.	8a\L	.	8ff#\L	.	8ff#\L	.	.	.
8E\	.	8g#\	.	8ee\	.	8ee\	.	.	.
!	!	!	!	!LO:TX:a:t=P:problem:# above	!	!	!	!	!
8E\J	.	8f#\J	.	8dd#X\J	.	8dd#X\J	.	.	.
=10	=10	=10	=10	=10	=10	=10	=10	=10	=10
.	.	8qqf#/	.	.	.	.	.	.	.
8E\L	.	4.e\	.	32ee\KLL	.	32ee\KLL	.	.	.
!	!	!	!	!	!	!LO:N:vis=16	!	!	!
.	.	.	.	16.a\JJ	.	16.a\JJ	.	.	.
.	.	.	.	8qqa/	.	8qqa/	.	.	.
8E\	.	.	.	4g#/	.	4g#/	.	.	.
8E\	.	.	.	.	.	.	.	.	.
8Dn\	.	8g#\L	.	8bb\L	.	8gg#\L	.	.	.
8C#\	.	8a\	.	8ee\	.	8ee\	.	.	.
8BB\J	.	8b\J	.	8ddn\J	.	8ddn\J	.	.	.
=11	=11	=11	=11	=11	=11	=11	=11	=11	=11
.	.	.	.	.	.	8qqdd/	.	.	.
!	!	!	!	!LO:N:vis=16	!	!	!	!	!
8AA/L	.	8e\L	.	8cc#\L	.	8cc#\L	.	.	.
8D/	.	8f#\J	.	16.b\L	.	16.b\L	.	.	.
.	.	.	.	32cc#\JJk	.	32cc#\JJk	.	.	.
.	.	8qqc#/	.	8qqa/	.	8qqa/	.	.	.
8E/	.	2B/	.	2g#/	.	2g#t/	.	.	.
8E/	.	.	.	.	.	.	.	.	.
8E/	.	.	.	.	.	.	.	.	.
8E/J	.	.	.	.	.	.	.	.	.
=12	=12	=12	=12	=12	=12	=12	=12	=12	=12
!	!	!LO:TX:a:t=P:problem:mixed beam	!	!	!	!	!	!	!
8A\L	.	8A/L	.	8a\L	.	8a\L	.	.	.
8A\	.	8a\	.	8cc#\J	.	8ee\J	.	.	.
8A\	.	8a\	.	16r	.	16r	.	.	.
.	.	.	.	16cc#\LL	.	16ee\LL	.	.	.
8A\	.	8a\	.	16.dd\	.	16.ff#\	.	.	.
.	.	.	.	32cc#\JJk	.	32ee\JJk	.	.	.
8A\	.	8a\	.	8ee\L	.	8aa\L	.	.	.
8A\J	.	8a\J	.	8cc#\J	.	8ee\J	.	.	.
=13	=13	=13	=13	=13	=13	=13	=13	=13	=13
!	!	!	!	!	!	!	!	!LO:N:vis=00	!
8E\L	.	8e\L	.	8r	.	8r	.	0.r	.
8E\	.	8e\	.	8b\	.	8dd\	.	.	.
8E\	.	8e\	.	16r	.	16r	.	.	.
.	.	.	.	16b\LL	.	16dd\LL	.	.	.
8E\	.	8e\	.	16.cc#\	.	16.ee\	.	.	.
.	.	.	.	32b\JJk	.	32dd\JJk	.	.	.
8E\	.	8e\	.	8gg#\L	.	8bb\L	.	.	.
8E\J	.	8e\J	.	8b\J	.	8dd\J	.	.	.
!	!	!	!	!LO:LB:g=original	!	!LO:LB:g=original	!	!	!
=14	=14	=14	=14	=14	=14	=14	=14	=14	=14
8AA/L	.	8e\L	.	8a/L	.	8cc#\L	.	.	.
8D/	.	8f#\J	.	8b/J	.	16.dd\L	.	.	.
.	.	.	.	.	.	32b\JJk	.	.	.
8E/	.	4e\	.	4aT/	.	4a/	.	.	.
8E/	.	.	.	.	.	.	.	.	.
8EE/	.	4d\	.	4g#/	.	4bT/	.	.	.
8EE/J	.	.	.	.	.	.	.	.	.
!LO:LB:g=original	!	!LO:LB:g=original	!	!	!	!	!	!	!
=15	=15	=15	=15	=15	=15	=15	=15	=15	=15
!	!LO:DY:b:t=pi.	!	!LO:DY:a:t=po&colon;	!	!LO:DY:t=pio	!LO:TX:a:t=P:problem:t. 15-17 zapisane repetycją, adnotacja "bis"	!	!	!
8AA/L	p	8c#\L	p	8a\L	p	8a\Lyy	.	.	.
8AA/	.	8a\	.	8cc#\J	.	8ee\Jyy	.	.	.
8AA/	.	8a\	.	16r	.	16ryy	.	.	.
.	.	.	.	16cc#\LL	.	16ee\LLyy	.	.	.
8AA/	.	8a\	.	16.dd\	.	16.ff#\yy	.	.	.
.	.	.	.	32cc#\JJk	.	32ee\JJkyy	.	.	.
8AA/	.	8a\	.	8ee\L	.	8aa\Lyy	.	.	.
8AA/J	.	8a\J	.	8cc#\J	.	8ee\Jyy	.	.	.
=16	=16	=16	=16	=16	=16	=16	=16	=16	=16
8E\L	.	8e\L	.	8r	.	8ryy	.	.	.
8E\	.	8e\	.	8b\	.	8dd\yy	.	.	.
8E\	.	8e\	.	16r	.	16ryy	.	.	.
.	.	.	.	16b\LL	.	16dd\LLyy	.	.	.
8E\	.	8e\	.	16.cc#\	.	16.ee\yy	.	.	.
.	.	.	.	32b\JJk	.	32dd\JJkyy	.	.	.
8E\	.	8e\	.	8dd\L	.	8bb\Lyy	.	.	.
8E\J	.	8e\J	.	8b\J	.	8dd\Jyy	.	.	.
=17	=17	=17	=17	=17	=17	=17	=17	=17	=17
!	!	!	!	!LO:N:vis=16	!	!	!	!LO:N:vis=0	!
8A\L	.	8e\L	.	8a/L	.	8cc#\Lyy	.	1.r	.
8D\J	.	8d\J	.	16.b/L	.	16.dd\Lyy	.	.	.
.	.	.	.	32g#/JJk	.	32b\JJkyy	.	.	.
4E\	.	4c#\	.	4e/	.	4a/yy	.	.	.
4EE/	.	4d\	.	4g#/	.	4bT/yy	.	.	.
=18	=18	=18	=18	=18	=18	=18	=18	=18	=18
2AA/	.	2c#\	.	4a/	.	4a/	.	.	.
.	.	.	.	2A/	.	2A/	.	.	.
4r	.	4r	.	.	.	.	.	.	.
!LO:TX:a:t=[segno]:problem:znak segno po kresce taktowej	!	!LO:TX:a:t=[segno]:problem:znak segno po kresce taktowej	!	!LO:TX:a:t=[segno]:problem:znak segno po kresce taktowej	!	!LO:TX:a:t=[segno]:problem:znak segno na kresce taktowej	!	!LO:TX:a:t=[segno]:problem:znak segno na kresce taktowej	!
=19	=19	=19	=19	=19	=19	=19	=19	=19-	=19
!	!	!	!LO:DY:a:t=pia.	!	!LO:DY:a:t=piu	!	!	!	!
8AA/L	.	8c#\L	p	8e/L	p	8a/L	.	4ee\	Co-
8AA/	.	8c#\	.	8e/	.	8a/	.	.	.
8AA/	.	8c#\	.	8e/	.	8a/	.	16dd\LL	.
.	.	.	.	.	.	.	.	16cc#\JJ	.
8AA/	.	8c#\	.	8e/	.	8a/	.	16b\LL	.
.	.	.	.	.	.	.	.	16a\JJ	.
.	.	.	.	.	.	.	.	8qqcc#/	.
8AA/	.	8d\	.	8f#/	.	8b/	.	8b\	.
.	.	.	.	.	.	.	.	8qqa/	.
8AA/J	.	8B\J	.	8d/J	.	8g#/J	.	8g#/	.
=20	=20	=20	=20	=20	=20	=20	=20	=20	=20
8AA/L	.	8c#\L	.	8e/L	.	8a/L	.	4a\	-ro-
8AA/	.	8c#\	.	8e/	.	8a/	.	.	.
8AA/	.	8c#\	.	8e/	.	8a/	.	2e/	.
8AA/	.	8c#\	.	8e/	.	8a/	.	.	.
8AA/	.	8c#\	.	8e/	.	8a/	.	.	.
8AA/J	.	8c#\J	.	8e/J	.	8a/J	.	.	.
=21	=21	=21	=21	=21	=21	=21	=21	=21	=21
8AA/L	.	8d\L	.	8f#/L	.	8a/L	.	4f#,</	-nam,
8AA/	.	8d\	.	8f#/	.	8a/	.	.	.
8AA/	.	8d\	.	8f#/	.	8a/	.	8f#/	Fran-
8AA/	.	8d\	.	8f#/	.	8a/	.	8f#/	-ci-
8AA/	.	8d\	.	8f#/	.	8a/	.	8dd\	-scae
8AA/J	.	8d\J	.	8f#/J	.	8a/J	.	8f#/	.
!	!	!	!	!LO:LB:g=original	!	!	!	!	!
=22	=22	=22	=22	=22	=22	=22	=22	=22	=22
8AA/L	.	8d\L	.	8f#/L	.	8a/L	.	4f#T/	da-
8AA/	.	8d\	.	8f#/	.	8a/	.	.	.
8AA/	.	8c#\	.	8e/	.	8a/	.	4e/	-te
8AA/	.	8c#\	.	8e/	.	8a/J	.	.	.
8AA/	.	8c#\	.	8e/	.	16r	.	4r	.
.	.	.	.	.	.	16a\LL	.	.	.
8AA/J	.	8c#\J	.	8e/J	.	16.b\	.	.	.
.	.	.	.	.	.	32cc#\JJk	.	.	.
!	!	!LO:LB:g=original	!	!	!	!	!	!LO:LB:g=original	!
=23	=23	=23	=23	=23	=23	=23	=23	=23	=23
8AA/L	.	8B/L	.	8f#/L	.	8dd\L	.	8dd\	Co-
*	*	*	*	*	*	*	*	*cue	*
8AA/	.	8B/	.	8f#/	.	8dd\J	.	8dd\	-ro-
*	*	*	*	*	*	*	*	*Xcue	*
8AA/	.	8B/	.	8e/	.	16r	.	8dd\	-nam
.	.	.	.	.	.	16dd\LL	.	.	.
8AA/	.	8B/	.	8e/	.	16.ff#\	.	8dd\	Fran-
.	.	.	.	.	.	32dd\JJk	.	.	.
8GG#/	.	8B/	.	8e/	.	8bb\L	.	8dd\	-ci-
8GG#/J	.	8B/J	.	8e/J	.	8dd\J	.	8dd\	-scae
!LO:LB:g=original	!	!	!	!	!	!	!	!	!
=24	=24	=24	=24	=24	=24	=24	=24	=24	=24
!LO:TX:a:t=P:problem:mixed beam	!	!	!	!	!	!LO:TX:a:t=P:problem:mixed beam	!	!	!
8AA/L	.	8A/L	.	8e/L	.	8dd\L	.	4dd\	da-
8AA/	.	8A/	.	8e/	.	8e/J	.	.	.
8AA/	.	8A/	.	8e/	.	16r	.	4cc#\	-te
!	!	!	!	!	!	!LO:TX:b:t=Cis	!	!	!
.	.	.	.	.	.	16cc#\LL	.	.	.
8AA/	.	8A/	.	8a/	.	16.ee\	.	.	.
.	.	.	.	.	.	32cc#\JJk	.	.	.
8A\	.	8A/	.	8cc#/	.	8aa\L	.	8r	.
8A\J	.	8A/J	.	8a/J	.	8cc#\J	.	8cc#\	Co-
!	!	!	!	!	!	!LO:LB:g=original	!	!	!
=25	=25	=25	=25	=25	=25	=25	=25	=25	=25
!	!	!	!	!	!	!LO:TX:a:t=P:problem:mixed beam	!	!	!
8D/L	.	8d\L	.	8a/L	.	8ff#\L	.	4ff#\	-ro-
8D/	.	8d\	.	8a/	.	8f#/J	.	.	.
*	*	*	*	*	*	*	*	*cue	*
8D/	.	8d\	.	8a/	.	8r	.	8ff#\	-nam
*	*	*	*	*	*	*	*	*Xcue	*
8D/	.	8d\	.	8a/	.	8ff#\L	.	8ff#\	Fran-
8D/	.	8d\	.	8b/	.	8dd\	.	8dd\	-ci-
8D#X/J	.	8d#X\J	.	8a/J	.	8cc#\J	.	8cc#\	-ae
=26	=26	=26	=26	=26	=26	=26	=26	=26	=26
8E\L	.	8e\L	.	8a/L	.	8cc#\L	.	(4cc#\	da-
8E\	.	8e\	.	8a/	.	8cc#\	.	.	.
8E\	.	8e\	.	8g#/	.	8b\J	.	4b\)	-te
8E\	.	8e\	.	8g#/	.	4ee\	.	.	.
8E\	.	8e\	.	8g#/	.	.	.	4r	.
8F#\J	.	8f#\J	.	8a/J	.	8dd#X\	.	.	.
=27	=27	=27	=27	=27	=27	=27	=27	=27	=27
8G#\L	.	8g#\L	.	8b/L	.	4ee\	.	8ee\	Co-
*	*	*	*	*	*	*	*	*cue	*
8G#\	.	8g#\	.	8b/	.	.	.	8ee\	-ro-
*	*	*	*	*	*	*	*	*Xcue	*
8G#\	.	8g#\	.	8b/	.	16r	.	8ee\	-nam
.	.	.	.	.	.	16ee\LL	.	.	.
8G#\	.	8g#\	.	8b/	.	16.gg#\	.	8ee\	Fran-
.	.	.	.	.	.	32ee\JJk	.	.	.
8G#\	.	8g#\	.	8b/	.	8bb\L	.	8ee\	-ci-
8G#\J	.	8g#\J	.	8b/J	.	8ee\J	.	8ee\	-scae
=28	=28	=28	=28	=28	=28	=28	=28	=28	=28
8F#\L	.	8f#\L	.	8a/L	.	8ee\L	.	4ee\	da-
8F#\	.	8f#\	.	8a/	.	8ee\	.	.	.
8F#\	.	8f#\	.	8a/	.	8dd#X\	.	4dd#X\	-te
8F#\	.	8f#\	.	8a/	.	8dd#\	.	.	.
8F#\	.	8f#\	.	8a/	.	8dd#\	.	8r	.
8F#\J	.	8f#\J	.	8a/J	.	8dd#\J	.	8ff#\	e-
=29	=29	=29	=29	=29	=29	=29	=29	=29	=29
8BB/L	.	8f#\L	.	8a/L	.	8dd\L	.	4.ff#\	-jus
8BB/	.	8f#\	.	8a/	.	8dd\	.	.	.
8BB/	.	8f#\	.	8a/	.	8dd\	.	.	.
8BB/	.	8f#\	.	8a/	.	8dd\	.	8dd#X\	Ce-
!	!	!	!	!	!	!	!	!LO:LB:g=original	!
8BB/	.	8f#\	.	8a/	.	8dd\	.	8b\	-le-
8BB/J	.	8f#\J	.	8a/J	.	8dd\J	.	8a\	-bra-
=30	=30	=30	=30	=30	=30	=30	=30	=30	=30
8E\L	.	8e\L	.	8g#/L	.	8ff#\L	.	8g#\	-te
8E\	.	8e\	.	8g#/	.	8b\	.	4b\	Ce-
8E\	.	8e\	.	8g#/	.	8b\	.	.	.
8E\	.	8e\	.	8g#/	.	8b\	.	4ee\	-le-
8E\	.	8e\	.	8g#/	.	8b\	.	.	.
8E\J	.	8e\J	.	8g#/J	.	8b\J	.	8b\	-bra-
!	!	!LO:LB:g=original	!	!	!	!	!	!	!
=31	=31	=31	=31	=31	=31	=31	=31	=31	=31
8E\L	.	8e\L	.	8a/L	.	8cc#\L	.	8cc#\	.
8E\	.	8e\	.	8a/	.	8cc#\	.	4ee\	.
8E\	.	8e\	.	8a/	.	8cc#\	.	.	.
8E\	.	8e\	.	8a/	.	8cc#\	.	4aa\	.
8E\	.	8e\	.	8a/	.	8cc#\	.	.	.
8E\J	.	8e\J	.	8a/J	.	8cc#\J	.	8cc#\	.
!LO:LB:g=original	!	!	!	!	!	!	!	!	!
=32	=32	=32	=32	=32	=32	=32	=32	=32	=32
8E\L	.	8e\L	.	8g#/L	.	8b\L	.	8b\	.
8E\	.	8e\	.	8g#/	.	8b\	.	4ee\	.
8E\	.	8e\	.	8g#/	.	8b\	.	.	.
8E\	.	8e\	.	8g#/	.	8b\	.	4gg#\	.
8E\	.	8e\	.	8g#/	.	8b\	.	.	.
8E\J	.	8e\J	.	8g#/J	.	8b\J	.	8b\	.
!	!	!	!	!LO:LB:g=original	!	!	!	!	!
=33	=33	=33	=33	=33	=33	=33	=33	=33	=33
8BB/L	.	8B/L	.	8f#/L	.	8a\L	.	8a\	.
8BB/	.	8B/	.	8f#/	.	8a\	.	4dd#X\	.
8BB/	.	8B/	.	8f#/	.	8a\	.	.	.
8BB/	.	8B/	.	8f#/	.	8a\	.	4ff#\	.
8BB/	.	8B/	.	8f#/	.	8a\	.	.	.
8BB/J	.	8B/J	.	8f#/J	.	8a\J	.	8a\	.
=34	=34	=34	=34	=34	=34	=34	=34	=34	=34
!	!	!	!	!	!	!LO:TX:a:t=P:problem:takt zapisany repetycją	!	!	!
8E/L	.	8B/L	.	8e/L	.	8a\Lyy	.	8g#/	.
8E/	.	8B/	.	8e/	.	8a\yy	.	4ee\	.
8C#/	.	8c#/	.	8e/	.	8a\yy	.	.	.
8C#/	.	8c#/	.	8e/	.	8a\yy	.	4ee\	.
8BB/	.	8B/	.	8e/	.	8a\yy	.	.	.
8BB/J	.	8B/J	.	8e/J	.	8a\Jyy	.	[8ee\	.
!	!	!	!	!	!	!LO:LB:g=original	!	!	!
=35	=35	=35	=35	=35	=35	=35	=35	=35	=35
8AA#X/L	.	8A#X/L	.	8e/L	.	8g#/L	.	8ee\]	.
8AA#/	.	8A#/	.	8e/	.	8g#/	.	4gg#\	.
8AA#/	.	8A#/	.	8e/	.	8cc#/	.	.	.
8AA#/	.	8A#/	.	8f#/	.	8cc#/	.	4ff#\	.
8AA#/	.	8A#/	.	8f#/	.	8cc#/	.	.	.
8AA#/J	.	8A#/J	.	8f#/J	.	8ee/J	.	8ee\	.
!	!	!	!	!	!	!	!	!LO:LB:g=original	!
=36	=36	=36	=36	=36	=36	=36	=36	=36	=36
.	.	.	.	.	.	8qqee/	.	8qqee/	.
8BB/L	.	8B/L	.	8f#/	.	4.dd#X\	.	4.dd#X\	.
8BB/	.	8B/	.	4f#/	.	.	.	.	.
8BB/	.	8B/	.	.	.	.	.	.	.
8BB/	.	8B/	.	(8a/L	.	(8cc#\L	.	8cc#\L	.
8BB/	.	8B/	.	8g#/	.	8b\	.	8b\J	.
8BB/J	.	8B/J	.	8f#/J)	.	8a\J)	.	8a\	.
=37	=37	=37	=37	=37	=37	=37	=37	=37	=37
!LO:TX:a:t=P:problem:mixed beam	!	!	!	!	!	!	!	!	!
8E\L	.	(8B/L	.	8e/L	.	(8g#/L	.	8g#/	.
8AAn/	.	8c#/)	.	8f#/	.	8a/)	.	16f#/LL	.
.	.	.	.	.	.	.	.	16e/JJ	.
8BB/	.	8B/	.	8e/	.	8g#/	.	4e/	.
8BB/	.	8B/	.	8e/	.	8g#/	.	.	.
!	!	!	!	!	!LO:DY:a:t=for.	!	!	!	!
8BB/	.	8B/	.	8d#X/	f	8f#/	.	4f#T/	.
8BB/J	.	8B/J	.	8d#/J	.	8f#/J	.	.	.
=38	=38	=38	=38	=38	=38	=38	=38	=38	=38
!	!	!	!	!LO:TX:a:t=P:problem:mixed beam	!	!LO:TX:a:t=P:problem:mixed beam	!	!	!
8E\L	.	8e\L	.	8e/L	.	8e/L	.	2e/	-te
8E\	.	8e\	.	8gg#\J	.	8bb\J	.	.	.
8E\	.	8e\	.	16r	.	16r	.	.	.
.	.	.	.	16g#/LL	.	16b\LL	.	.	.
8E\	.	8e\	.	16.a/	.	16.cc#\	.	.	.
.	.	.	.	32g#/JJk	.	32b\JJk	.	.	.
8E\	.	8e\	.	8b/L	.	8ee\L	.	4r	.
8E\J	.	8e\J	.	8g#/J	.	8b\J	.	.	.
!	!	!LO:LB:g=original	!	!	!	!	!	!	!
=39	=39	=39	=39	=39	=39	=39	=39	=39	=39
!LO:TX:a:t=P:problem:mixed beam	!	!	!	!LO:TX:a:t=P:problem:mixed beam	!	!LO:TX:a:t=P:problem:mixed beam	!	!LO:N:vis=0	!
8B\L	.	8B/L	.	8f#/L	.	8a/L	.	1.r	.
8B\	.	8B/	.	8ff#\J	.	8aa\J	.	.	.
8B\	.	8B/	.	16r	.	16r	.	.	.
.	.	.	.	16f#/LL	.	16a/LL	.	.	.
8B\	.	8B/	.	16.g#/	.	16.b/	.	.	.
.	.	.	.	32f#/JJk	.	32a/JJk	.	.	.
!	!	!	!	!LO:TX:a:t=P:problem:mixed beam	!	!LO:TX:a:t=P:problem:mixed beam	!	!	!
8BB/	.	8B/	.	8dd#X\L	.	8gg#\L	.	.	.
8BB/J	.	8B/J	.	8f#/J	.	8a/J	.	.	.
!LO:LB:g=original	!	!	!	!	!	!	!	!	!
=40	=40	=40	=40	=40	=40	=40	=40	=40	=40
.	.	.	.	8qqa/	.	8qqa/	.	.	.
!LO:TX:a:t=P:problem:mixed beam	!	!	!	!	!	!	!	!	!
8E\L	.	8B/L	.	8g#/L	.	8g#/L	.	.	.
8AA/	.	8c#/	.	16f#/L	.	16f#/L	.	.	.
.	.	.	.	16e/JJ	.	16e/JJ	.	.	.
8BB/	.	8B/	.	4e/	.	4e/	.	.	.
8BB/	.	8B/	.	.	.	.	.	.	.
8BB/	.	8A/	.	4d#Xt/	.	4f#/	.	.	.
8BB/J	.	8A/J	.	.	.	.	.	.	.
=41	=41	=41	=41	=41	=41	=41	=41	=41	=41
!LO:TX:a:t=P:problem:mixed beam	!	!LO:TX:a:t=P:problem:mixed beam	!	!	!	!	!	!	!
8EE/L	.	8G#/L	.	8e/L	.	8e/L	.	4b\	Co-
8E\	.	8E/	.	8g#/	.	8b/	.	.	.
8E\	.	8e\	.	8g#/	.	8b/	.	16a\LL	.
.	.	.	.	.	.	.	.	16g#\JJ	.
8E\	.	8e\	.	8g#/	.	8b/	.	16f#/LL	-ro-
.	.	.	.	.	.	.	.	16e/JJ	.
8E\	.	8e\	.	8a/	.	8cc#/	.	8cc#\	-nam
8E\J	.	8e\J	.	8a/J	.	8cc#/J	.	8cc#\	Fran-
!	!	!	!	!LO:LB:g=original	!	!	!	!	!
=42	=42	=42	=42	=42	=42	=42	=42	=42	=42
8E\L	.	8e\L	.	8r	.	8r	.	4cc#t\	-ci-
8E\	.	8e\	.	8a/	.	8cc#\	.	.	.
8E\	.	8e\	.	16r	.	16r	.	4b\	-scae
.	.	.	.	16g#/LL	.	16b\LL	.	.	.
8E\	.	8e\	.	16.a/	.	16.cc#\	.	.	.
.	.	.	.	32g#/JJk	.	32b\JJk	.	.	.
!	!	!	!	!	!	!LO:LB:g=original	!	!	!
8E\	.	8e\	.	8b/L	.	8ee\L	.	4r	.
8E\J	.	8e\J	.	8g#/J	.	8b\J	.	.	.
=43	=43	=43	=43	=43	=43	=43	=43	=43	=43
*	*	*	*	*	*	*	*	*^	*
8E\L	.	8e\L	.	8r	.	8r	.	4b\	2ryy	Co-
8E\	.	8e\	.	8g#/	.	8b\	.	.	.	.
8E\	.	8e\	.	8r	.	8r	.	16a\LL	.	.
.	.	.	.	.	.	.	.	16g#\JJ	.	.
8E\	.	8e\	.	8g#/	.	8b\L	.	16f#/LL	.	-ro-
.	.	.	.	.	.	.	.	16e/JJ	.	.
!	!	!	!	!	!	!	!	!LO:LB:g=original	!	!
8E\	.	8e\	.	8b/L	.	8dd\	.	8dd/	8d/	-nam
8E\J	.	8e\J	.	8b/J	.	8dd\J	.	8dd/	8d/	Fran-
=44	=44	=44	=44	=44	=44	=44	=44	=44	=44	=44
8AA/L	.	8e\L	.	8r	.	8r	.	4dd/	4d/	-ci-
8AA/	.	8e\	.	8b/	.	8dd\	.	.	.	.
8AA/	.	8e\	.	16r	.	16r	.	4cc#/	4c#/	-scae
.	.	.	.	16a\LL	.	16cc#\LL	.	.	.	.
8AA/	.	8e\	.	16.cc#\	.	16.ee\	.	.	.	.
.	.	.	.	32a\JJk	.	32cc#\JJk	.	.	.	.
8AA/	.	8e\	.	8cc#\L	.	8aa\L	.	4r	4ryy	.
8AA/J	.	8e\J	.	8a\J	.	8cc#\J	.	.	.	.
*	*	*	*	*	*	*	*	*v	*v	*
!	!	!LO:LB:g=original	!	!	!	!	!	!	!
=45	=45	=45	=45	=45	=45	=45	=45	=45	=45
!LO:TX:a:t=P:problem:mixed beam	!	!	!	!	!	!	!	!	!
8GGn/L	.	8gn\L	.	8r	.	8r	.	4ee\	Co-
8Gn\	.	8g\	.	8cc#\	.	8ee\	.	.	.
8G\	.	8g\	.	8r	.	8r	.	8ee\	-ro-
8G\	.	8g\	.	8cc#\L	.	8ee\L	.	8ee\	-nam
8G\	.	8g\	.	8cc#\	.	8ee\	.	8ee\	Fran-
8G\J	.	8g\J	.	8cc#\J	.	8ee\J	.	8ee\	-ci-
=46	=46	=46	=46	=46	=46	=46	=46	=46	=46
8F#\L	.	8A#X/L	.	8r	.	8r	.	(8ee\L	-scae
8F#\	.	8A#/	.	8cc#\	.	8ee\	.	8cc#\J)	.
8F#\	.	8c#/	.	8r	.	8r	.	4.a#X\	da-
8F#\	.	8c#/	.	8cc#\L	.	8ee\L	.	.	.
8F#\	.	8F#/	.	8cc#\	.	8ee\	.	.	.
8F#\J	.	8F#/J	.	8cc#\J	.	8ee\J	.	8ee\	.
=47	=47	=47	=47	=47	=47	=47	=47	=47	=47
8B\L	.	8f#\L	.	8cc#/L	.	8ee\L	.	16ee\LL	.
.	.	.	.	.	.	.	.	16cc#\JJ	.
8B\J	.	8f#\	.	8b/	.	8dd\	.	4dd\	.
!LO:LB:g=original	!	!	!	!	!	!	!	!	!
!LO:TX:a:t=P:problem:mixed beam	!	!	!	!	!	!	!	!	!
8G#\L	.	8e\	.	8b/	.	8dd\	.	.	.
8G#\	.	8e\	.	8b/	.	8dd\	.	8dd\	-te
8A\	.	8e\	.	8b/	.	8dd\	.	8dd\	ce-
8AA/J	.	8e\J	.	8a/J	.	8cc#\J	.	8cc#\	-le-
=48	=48	=48	=48	=48	=48	=48	=48	=48	=48
8E\L	.	8e\L	.	8a/L	.	8cc#\L	.	(4cc#t\	-bra-
8E\	.	8e\	.	8a/J	.	8cc#\J	.	.	.
8E\	.	8e\	.	8r	.	8r	.	4b\)	-te
8E\	.	8e\	.	8g#/	.	8b\	.	.	.
8D\	.	8d\	.	16r	.	16r	.	4r	.
.	.	.	.	16g#/LL	.	16b\LL	.	.	.
8D\J	.	8d\J	.	16.a/	.	16.cc#\	.	.	.
.	.	.	.	32b/JJk	.	32dd\JJk	.	.	.
!	!	!	!	!LO:LB:g=original	!	!	!	!	!
=49	=49	=49	=49	=49	=49	=49	=49	=49	=49
8C#/L	.	8c#/L	.	8cc#\L	.	8ee\L	.	4ee\	Co-
8C#/	.	8c#/	.	8a\J	.	8ee\J	.	.	.
8C#/	.	8c#/	.	8r	.	8r	.	16ddn\LL	.
.	.	.	.	.	.	.	.	16cc#\JJ	.
!	!	!	!	!	!	!	!	!LO:LB:g=original	!
8C#/	.	8c#/	.	8a/	.	8ee\	.	16b\LL	-ro-
.	.	.	.	.	.	.	.	16a\JJ	.
8C#/	.	8c#/	.	8r	.	8r	.	8gn/	-nam
8C#/J	.	8c#/J	.	8gn/	.	8ee\	.	8g/	Fran-
!	!	!	!	!	!	!LO:LB:g=original	!	!	!
=50	=50	=50	=50	=50	=50	=50	=50	=50	=50
!	!	!	!	!	!	!	!	!LO:SIC:v:s=gn	!
8D/L	.	8d\L	.	8r	.	8r	.	4g#/	-ci-
!	!	!	!	!LO:SIC:v:s=gn	!	!	!	!	!
8D/	.	8d\	.	8g#/	.	8a/	.	.	.
8D/	.	8d\	.	8r	.	8r	.	4f#/	-scae
8D/	.	8d\	.	8f#/L	.	8a/L	.	.	.
8D/	.	8d\	.	8f#/	.	8a/	.	8r	.
8D/J	.	8d\J	.	8f#/J	.	8a/J	.	8ff#\	Co-
=51	=51	=51	=51	=51	=51	=51	=51	=51	=51
8D#X/L	.	8d#X\L	.	8r	.	8r	.	4.ff#\	-ro-
8D#/	.	8d#\	.	8a/	.	8ff#\	.	.	.
8D#/	.	8d#\	.	8r	.	8r	.	.	.
8D#/	.	8d#\	.	8b/	.	8ff#\	.	16ee\LL	.
.	.	.	.	.	.	.	.	16dd#X\JJ	.
8D#/	.	8d#\	.	8r	.	8r	.	16cc#\LL	.
.	.	.	.	.	.	.	.	16b\JJ	.
8D#/J	.	8d#\J	.	8a/	.	8ff#\	.	8a\	.
!	!	!LO:LB:g=original	!	!	!	!	!	!	!
=52	=52	=52	=52	=52	=52	=52	=52	=52	=52
.	.	.	.	.	.	.	.	8qqa/	.
8E\L	.	8e\L	.	8r	.	8r	.	4.g#X/	-nam
8E\	.	8e\	.	4g#X/	.	4b/	.	.	.
8E\	.	8e\	.	.	.	.	.	.	.
8E\	.	8e\	.	8a/L	.	8ff#\L	.	8ff#\L	Fran-
8E\	.	8e\	.	8g#/	.	8ee\	.	8ee\	.
8E\J	.	8e\J	.	8f#/J	.	8dd#X\J	.	8dd#X\J	.
=53	=53	=53	=53	=53	=53	=53	=53	=53	=53
!	!	!	!	!	!	!	!	!LO:SIC:v:s=8qqdd#	!
.	.	.	.	8qqf#/	.	8qqdd#X/	.	(8qqdd/	.
8E\L	.	8e\L	.	4.g#/	.	4.ee\	.	4.ee\)	.
8E\	.	8e\	.	.	.	.	.	.	.
8E\	.	8e\	.	.	.	.	.	.	.
8E\	.	8e\	.	8a/L	.	(8ff#\L	.	16aa\LL	.
.	.	.	.	.	.	.	.	16ff#\J	.
8E\	.	8e\	.	8g#/	.	8ee\	.	8ee\	.
8E\J	.	8e\J	.	8f#/J	.	8dd#\J)	.	8dd#X\J	.
=54	=54	=54	=54	=54	=54	=54	=54	=54	=54
8E\L	.	8e\L	.	8a/L	.	(8ee\L	.	8ee\L	.
8E\	.	8e\	.	8a/	.	8ff#\J)	.	8ff#\J	.
.	.	.	.	.	.	8qqee/	.	(8qqee/	.
*	*	*	*	*	*	*2\right	*	*	*
8E\	.	8e\	.	8b/	.	2ddn\	.	4.ddn\)	.
8E\	.	8e\	.	8b/	.	.	.	.	.
8E\	.	8e\	.	8g#/	.	.	.	.	.
!	!	!	!	!	!	!	!	!LO:LB:g=original	!
8E\J	.	8e\J	.	8g#/J	.	.	.	16cc#\LL	.
.	.	.	.	.	.	.	.	16b\JJ	.
!LO:LB:g=original	!	!	!	!	!	!	!	!	!
=55	=55	=55	=55	=55	=55	=55	=55	=55	=55
8E\L	.	8e\L	.	8a/L	.	8cc#\L	.	8cc#\	.
8E\	.	8e\	.	8a/	.	8cc#\	.	4ee\	.
8E\	.	8e\	.	8a/	.	8cc#\	.	.	.
8E\	.	8e\	.	8a/	.	8cc#\	.	4aa\	.
8E\	.	8e\	.	8a/	.	8cc#\	.	.	.
8E\J	.	8e\J	.	8a/J	.	8cc#\J	.	8cc#\	.
=56	=56	=56	=56	=56	=56	=56	=56	=56	=56
8E\L	.	8e\L	.	8g#/	.	8b\	.	8b\	.
8E\	.	8e\	.	4b/	.	4dd\	.	4dd\	.
8E\	.	8e\	.	.	.	.	.	.	.
8E\	.	8e\	.	4a/	.	4cc#\	.	4cc#\	.
8E\	.	8e\	.	.	.	.	.	.	.
8E\J	.	8e\J	.	8g#/	.	8b\	.	8b\	.
=57	=57	=57	=57	=57	=57	=57	=57	=57	=57
8C#/L	.	8c#\L	.	8a/L	.	8ee\L	.	8ee\	-ci-
8D/	.	8d\	.	8a/	.	8ff#\	.	8ff#\	-scae
8E/	.	8e\	.	8a/	.	8cc#\	.	4a\	da-
8E/	.	8e\	.	8a/	.	8cc#\	.	.	.
8E/	.	8e\	.	8g#/	.	8b\	.	4bT\	.
8E/J	.	8e\J	.	8g#/J	.	8b\J	.	.	.
!	!	!	!	!LO:LB:g=original	!	!	!	!	!
=58	=58	=58	=58	=58	=58	=58	=58	=58	=58
!	!LO:DY:b:t=for.	!	!LO:DY:b:t=For	!	!LO:DY:a:t=for.	!	!	!	!
8AA/L	f	8A/L	f	8a\L	f	8a\L	.	2a\	-te
8AA/	.	8A/	.	8cc#\J	.	8ee\J	.	.	.
!	!	!	!	!	!	!LO:LB:g=original	!	!	!
8AA/	.	8A/	.	16r	.	16r	.	.	.
.	.	.	.	16cc#\LL	.	16ee\LL	.	.	.
8AA/	.	8A/	.	16.dd\	.	16.ff#\	.	.	.
.	.	.	.	32cc#\JJk	.	32ee\JJk	.	.	.
8AA/	.	8A/	.	8ee\L	.	8aa\L	.	4r	.
8AA/J	.	8A/J	.	8cc#\J	.	8ee\J	.	.	.
!	!	!LO:LB:g=original	!	!	!	!	!	!	!
=59	=59	=59	=59	=59	=59	=59	=59	=59	=59
!	!LO:DY:a:t=pia.	!	!LO:DY:a:t=pia.	!	!	!	!	!	!
8E\L	p	8e\L	p	8r	.	8r	.	4dd\	ejus
8E\	.	8e\	.	8b\	.	8dd\	.	.	.
8E\	.	8e\	.	16r	.	16r	.	8dd\	Fes-
.	.	.	.	16b\LL	.	16dd\LL	.	.	.
8E\	.	8e\	.	16.cc#\	.	16.ee\	.	8dd\	-ta
.	.	.	.	32b\JJk	.	32dd\JJk	.	.	.
8E\	.	8e\	.	8gg#\L	.	8bb\L	.	8dd\	ce-
8E\J	.	8e\J	.	8b\J	.	8dd\J	.	8dd\	-le-
=60	=60	=60	=60	=60	=60	=60	=60	=60	=60
!	!LO:DY:a:t=pi.	!	!LO:DY:a:t=pia.	!	!LO:DY:a	!	!	!	!
8A\L	p	8e\L	p	8r	p	8r	.	4dd\	-bra-
8A\	.	8e\	.	8a/	.	8cc#\	.	.	.
!	!LO:DY:a:t=For.	!	!	!	!LO:DY:a	!	!	!	!
8A\	f	8e\	.	16r	f	16r	.	4cc#\	-te
.	.	.	.	16a/LL	.	16cc#\LL	.	.	.
8A\	.	8e\	.	16.b/	.	16.dd\	.	.	.
.	.	.	.	32a/JJk	.	32cc#\JJk	.	.	.
!	!	!	!LO:DY:t=For.	!	!	!	!	!	!
8D\	.	8d\	f	8a/L	.	8ff#\L	.	8r	.
8D\J	.	8d\J	.	8a/J	.	8a\J	.	8ff#\	ce-
!	!	!	!	!	!	!	!	!LO:LB:g=original	!
=61	=61	=61	=61	=61	=61	=61	=61	=61	=61
8C#/L	.	8c#\L	.	8a/L	.	8ee\L	.	16ee\LL	.
.	.	.	.	.	.	.	.	16cc#\JJ	.
8D/	.	8d\	.	8b/	.	8dd\	.	16b\LL	-le-
.	.	.	.	.	.	.	.	16a\JJ	.
8E/	.	8e\	.	8a/	.	8cc#\	.	4e/	-bra-
8E/	.	8e\	.	8a/	.	8cc#\	.	.	.
8E/	.	8e\	.	8g#/	.	8b\	.	4bT\	.
8E/J	.	8e\J	.	8g#/J	.	8b\J	.	.	.
=62	=62	=62	=62	=62	=62	=62	=62	=62	=62
!	!LO:DY:a:t=pia.	!	!LO:DY:a:t=pia.	!	!LO:DY:a:t=pio	!	!	!	!
8A\L	p	8A/L	p	8a\L	p	8a\L	.	4a\	-te
8A\	.	8A/	.	8cc#\J	.	8ee\J	.	.	.
8A\	.	8A/	.	16r	.	16r	.	4r	.
.	.	.	.	16cc#\LL	.	16ee\LL	.	.	.
8A\	.	8A/	.	16.dd\	.	16.ff#\	.	.	.
.	.	.	.	32cc#\JJk	.	32ee\JJk	.	.	.
8A\	.	8G#/	.	8ee\L	.	8aa\L	.	8r	.
8A\J	.	8A/J	.	8cc#\J	.	8ee\J	.	8ee\	e-
!LO:LB:g=original	!	!	!	!	!	!	!	!	!
=63	=63	=63	=63	=63	=63	=63	=63	=63	=63
!	!LO:DY:a:t=For.	!	!LO:DY:a:t=For.	!	!	!	!	!	!
8E\L	f	8e\L	f	8r	.	8r	.	8ee\	.
8E\	.	8e\	.	8b\	.	8dd\	.	4dd\	-jus
8E\	.	8e\	.	16r	.	16r	.	.	.
.	.	.	.	16b\LL	.	16dd\LL	.	.	.
8E\	.	8e\	.	16.cc#\	.	16.ee\	.	8r	.
.	.	.	.	32b\JJk	.	32dd\JJk	.	.	.
8E\	.	8e\	.	8dd\L	.	8bb\L	.	8r	.
8E\J	.	8e\J	.	8g#\J	.	8dd\J	.	8dd\	ce-
=64	=64	=64	=64	=64	=64	=64	=64	=64	=64
8AA/L	.	8e\L	.	8a/L	.	8cc#\L	.	8cc#\	.
8D/J	.	8f#\J	.	8a/J	.	8ee\J	.	16b\LL	.
.	.	.	.	.	.	.	.	16a\JJ	.
*2\right	*	*2\right	*	*	*	*	*	*	*
2E;\	.	2e;\	.	4a;</	.	4cc#;\	.	4a\	-le-
.	.	.	.	4r	.	4r	.	4bT\	-bra-
!	!	!	!	!LO:LB:g=original	!	!LO:LB:g=original	!	!	!
=65	=65	=65	=65	=65	=65	=65	=65	=65	=65
!	!LO:DY:b:t=For.	!	!LO:DY:a:t=For.	!	!	!	!LO:DY:b:t=for.	!	!
8A\L	f	8a\L	f	8a/L	.	8a\L	f	2a\	-te
8A\	.	8a\	.	8cc#/J	.	8ee\J	.	.	.
8A\	.	8a\	.	16r	.	16r	.	.	.
.	.	.	.	16cc#\LL	.	16ee\LL	.	.	.
8A\	.	8a\	.	16.dd\	.	16.ff#\	.	.	.
.	.	.	.	32cc#\JJk	.	32ee\JJk	.	.	.
8A\	.	8a\	.	8ee\L	.	8aa\L	.	4r	.
8A\J	.	8a\J	.	8cc#\J	.	8ee\J	.	.	.
=66	=66	=66	=66	=66	=66	=66	=66	=66	=66
!	!	!	!	!	!	!	!	!LO:N:vis=00	!
8E\L	.	8e\L	.	8r	.	8r	.	0.r	.
8E\	.	8e\	.	8b\	.	8dd\	.	.	.
8E\	.	8e\	.	16r	.	16r	.	.	.
.	.	.	.	16b\LL	.	16dd\LL	.	.	.
8E\	.	8e\	.	16.cc#\	.	16.ee\	.	.	.
.	.	.	.	32b\JJk	.	32dd\JJk	.	.	.
8E\	.	8e\	.	8dd\L	.	8bb\L	.	.	.
8E\J	.	8e\J	.	8b\J	.	8dd\J	.	.	.
!	!	!LO:LB:g=original	!	!	!	!	!	!	!
=67	=67	=67	=67	=67	=67	=67	=67	=67	=67
8AA/L	.	8e\L	.	8r	.	8r	.	.	.
8AA/	.	8e\	.	8a/	.	8cc#\	.	.	.
8AA/	.	8e\	.	16r	.	16r	.	.	.
.	.	.	.	16a/LL	.	16cc#\LL	.	.	.
8AA/	.	8e\	.	16.b/	.	16.dd\	.	.	.
.	.	.	.	32a/JJk	.	32cc#\JJk	.	.	.
8D/	.	8d\	.	8a/L	.	8ff#\L	.	.	.
8D#X/J	.	8c#\J	.	8a/J	.	8a\J	.	.	.
=68	=68	=68	=68	=68	=68	=68	=68	=68	=68
.	.	8qqc#/	.	8qqa/	.	8qqa/	.	.	.
8E\L	.	4.B/	.	4.g#/	.	4.g#/	.	.	.
8B\	.	.	.	.	.	.	.	.	.
8E\	.	.	.	.	.	.	.	.	.
8Dn\	.	8g#\L	.	8bb\L	.	8bb\L	.	.	.
8C#\	.	8a\	.	8ee\	.	8ee\	.	.	.
8BB\J	.	8b\J	.	8dd\J	.	8dd\J	.	.	.
=69	=69	=69	=69	=69	=69	=69	=69	=69	=69
8AA/L	.	8e\L	.	8cc#\L	.	8cc#\L	.	.	.
8D/J	.	8f#\J	.	16.b\L	.	16.b\L	.	.	.
.	.	.	.	32cc#\JJk	.	32cc#\JJk	.	.	.
.	.	.	.	8qqa/	.	8qqa/	.	.	.
4E\	.	4e\	.	2g#/	.	2g#t/	.	.	.
4EE/	.	4d\	.	.	.	.	.	.	.
=70	=70	=70	=70	=70	=70	=70	=70	=70	=70
4AA;</	.	4c#;\	.	4a;/	.	4a;/	.	4r	.
!LO:LB:g=original	!	!	!	!	!	!	!	!	!
4C#/	.	4c#\	.	4r	.	4r	.	4ee\	Fe-
4D/	.	4d\	.	4r	.	4r	.	16dd\LL	.
.	.	.	.	.	.	.	.	16cc#\JJ	.
.	.	.	.	.	.	.	.	16b\LL	-sta
.	.	.	.	.	.	.	.	16a\JJ	.
!	!	!	!	!	!	!	!	!LO:LB:g=original	!
=71||	=71||	=71||	=71||	=71||	=71||	=71||	=71||	=71||	=71||
.	.	.	.	.	.	.	.	(8qqa/	.
!	!	!	!	!	!	!	!LO:DY:b:t=piano.	!	!
8E\L	.	8e\L	.	8r	.	8r	p	2g#\)	Fer-
8E\	.	8e\	.	8b/L	.	8ee\L	.	.	.
8E\	.	8e\	.	8b/	.	8ee\	.	.	.
8E\	.	8e\	.	8b/	.	8ee\	.	.	.
8E\	.	8e\	.	8g#/	.	8ee\	.	8b\	-ve-
8E\J	.	8e\J	.	8g#/J	.	8ee\J	.	8ee\	-te
=72	=72	=72	=72	=72	=72	=72	=72	=72	=72
8F#\L	.	8f#\L	.	8a/L	.	8ee\L	.	16ee\LL	cun-
.	.	.	.	.	.	.	.	16cc#\JJ	.
8F#\	.	8f#\	.	8a/	.	8dd\	.	8dd\	.
*	*	*	*	*	*	*	*	*cue	*
8F#\	.	8f#\	.	8a/	.	8dd\	.	8dd\	-cti
*	*	*	*	*	*	*	*	*Xcue	*
8F#\	.	8f#\	.	8a/	.	8dd\	.	8dd\	Cun-
8G#\	.	8e\	.	8b/	.	8dd\	.	8dd\	-cti
8G#\J	.	8e\J	.	8b/J	.	8dd\J	.	8dd\	a-
!	!	!	!	!LO:LB:g=original	!	!LO:LB:g=original	!	!	!
=73	=73	=73	=73	=73	=73	=73	=73	=73	=73
8A\L	.	8e\L	.	8b/L	.	8dd\	.	8dd\	-mo-
8A\	.	8e\	.	8a/	.	4cc#\	.	4.cc#\	-re
8A\	.	8a\	.	8cc#/	.	.	.	.	.
8A\	.	8a\	.	8cc#/	.	4ff#\	.	.	.
8G#\	.	8g#\	.	8b/	.	.	.	4r	.
8G#\J	.	8g#\J	.	8b/J	.	8ee#X\	.	.	.
=74	=74	=74	=74	=74	=74	=74	=74	=74	=74
8F#\L	.	8f#\L	.	8a/L	.	8ff#\L	.	4aa\	In
8F#\	.	8f#\	.	8cc#/	.	8ff#\	.	.	.
8F#\	.	8f#\	.	8cc#/	.	8aa\	.	8ff#\	e-
8F#\	.	8f#\J	.	8cc#/	.	8aa\	.	8ee\	-jus
!	!	!LO:LB:g=original	!	!	!	!	!	!	!
8F#\	.	8f#\L	.	8dd#X/	.	8aa\	.	8dd#X\	sae-
8F#\J	.	8f#\J	.	8cc#/J	.	8aa\J	.	8cc#\	-ti
=75	=75	=75	=75	=75	=75	=75	=75	=75	=75
8G#\L	.	8g#\L	.	8b#X\	.	8gg#\	.	8b#X\	ho-
8G#\	.	8g#\	.	4dd#X\	.	4ff#\	.	4ff#\	-no-
8G#\	.	8g#\	.	.	.	.	.	.	.
8G#\	.	8g#\	.	4cc#\	.	4ee\	.	4ee\	.
8G#\	.	8g#\	.	.	.	.	.	.	.
8G#\J	.	8g#\J	.	8b#X\	.	8dd#X\	.	8dd#X\	.
=76	=76	=76	=76	=76	=76	=76	=76	=76	=76
8G#\L	.	8g#\L	.	8cc#\L	.	8ee\L	.	8ee\	.
8G#\	.	8g#\	.	8cc#\	.	8ee\	.	4gg#\	.
8G#\	.	8g#\	.	8cc#\	.	8ee\	.	.	.
!	!	!	!	!	!	!	!	!LO:LB:g=original	!
8G#\	.	8g#\	.	8cc#\	.	8ee\	.	16ff#\LL	.
.	.	.	.	.	.	.	.	16ee\JJ	.
8G#\	.	8g#\	.	8dd#X\	.	8ff#\	.	8dd#X\L	.
8G#\J	.	8g#\J	.	8cc#\J	.	8ee\J	.	8cc#\J	.
!LO:LB:g=original	!	!	!	!	!	!	!	!	!
=77	=77	=77	=77	=77	=77	=77	=77	=77	=77
8G#\L	.	8g#\L	.	8r	.	8r	.	2g#/	-re
8G#\	.	8g#\	.	8b#X\	.	8dd#X\	.	.	.
8G#\	.	8g#\	.	16r	.	16r	.	.	.
.	.	.	.	16b#\LL	.	16dd#\LL	.	.	.
8G#\	.	8g#\	.	16.cc#\	.	16.ee\	.	.	.
.	.	.	.	32b#\JJk	.	32dd#\JJk	.	.	.
8G#\	.	8g#\	.	8dd#X\L	.	8gg#\L	.	4r	.
8G#\J	.	8g#\J	.	8b#\J	.	8dd#X\J	.	.	.
=78	=78	=78	=78	=78	=78	=78	=78	=78	=78
8F#\L	.	8f#\L	.	8r	.	8r	.	4dd#X\	in
8F#\	.	8f#\	.	8b#X\	.	8dd#X\	.	.	.
8F#\	.	8f#\	.	16r	.	16r	.	8dd#\	e-
.	.	.	.	16b#\LL	.	16dd#X\LL	.	.	.
8F#\	.	8f#\	.	16.cc#\	.	16.ee\	.	8dd#\	-jus
.	.	.	.	32b#\JJk	.	32dd#X\JJk	.	.	.
!	!	!	!	!	!	!LO:TX:a:t=P:problem:mixed beam	!	!	!
8F#\	.	8f#\	.	8dd#X\L	.	8gg#\L	.	8dd#\	Sae-
8F#\J	.	8f#\J	.	8b#\J	.	8g#/J	.	8dd#\	-ti
=79	=79	=79	=79	=79	=79	=79	=79	=79	=79
8E\L	.	8e\L	.	4cc#\	.	4g#/	.	4gg#\	ho-
8E\	.	8e\	.	.	.	.	.	.	.
8D#X\	.	8d#X\	.	4dd#X\	.	4b#X/	.	4ff#\	-no-
8D#\	.	8d#\	.	.	.	.	.	.	.
8C#\	.	8c#\	.	4ee\	.	4cc#/	.	[4ee\	.
8C#\J	.	8c#\J	.	.	.	.	.	.	.
!	!	!	!	!	!	!LO:LB:g=original	!	!	!
=80	=80	=80	=80	=80	=80	=80	=80	=80	=80
8F#\L	.	8f#\L	.	8f#/L	.	8f#/L	.	8ee\]	.
8F#X\J	.	8f#X\J	.	8f#X/J	.	8f#X/J	.	16dd#X\LL	.
.	.	.	.	.	.	.	.	16cc#\JJ	.
2G#;\	.	2g#;\	.	2g#/	.	2g#/	.	4cc#\	.
.	.	.	.	.	.	.	.	4dd#X\	.
!	!	!LO:LB:g=original	!	!LO:LB:g=original	!	!	!	!	!
=81	=81	=81	=81	=81	=81	=81	=81	=81	=81
8c#\L	.	8g#\L	.	8cc#\L	.	8a\L	.	2cc#\	-re.
8c#\	.	8g#\	.	8ee\J	.	8ee\J	.	.	.
8c#\	.	8g#\	.	16r	.	16r	.	.	.
.	.	.	.	16ee\LL	.	16ee\LL	.	.	.
8c#\	.	8g#\	.	16.ff#\	.	16.ff#\	.	.	.
.	.	.	.	32ee\JJk	.	32ee\JJk	.	.	.
8c#\	.	8a\	.	8aa\L	.	8aa\L	.	4r	.
8c#\J	.	8a\J	.	8ee\J	.	8ee\J	.	.	.
=82	=82	=82	=82	=82	=82	=82	=82	=82	=82
!	!	!	!	!	!	!	!	!LO:N:vis=00	!
8G#\L	.	8a\L	.	8r	.	8r	.	0.r	.
8G#\	.	8e\	.	8bn\	.	8ddn\	.	.	.
8G#\	.	8e\	.	16r	.	16r	.	.	.
.	.	.	.	16b\LL	.	16dd\LL	.	.	.
8G#\	.	8e\	.	16.cc#\	.	16.ee\	.	.	.
.	.	.	.	32b\JJk	.	32dd\JJk	.	.	.
8G#\	.	8e\	.	8dd\L	.	8bb\L	.	.	.
8G#\J	.	8e\J	.	8b\J	.	8dd\J	.	.	.
=83	=83	=83	=83	=83	=83	=83	=83	=83	=83
8A\L	.	8e\L	.	8cc#\L	.	8cc#\L	.	.	.
8D\	.	8f#\J	.	16.b\L	.	16.bT\L	.	.	.
.	.	.	.	32cc#\JJk	.	32cc#\JJk	.	.	.
.	.	8qqc#/	.	8qqa/	.	8qqa/	.	.	.
8E\	.	2B/	.	2g#/	.	2g#t/	.	.	.
8E\J	.	.	.	.	.	.	.	.	.
!LO:LB:g=original	!	!	!	!	!	!	!	!	!
8E\L	.	.	.	.	.	.	.	.	.
8E\J	.	.	.	.	.	.	.	.	.
=84	=84	=84	=84	=84	=84	=84	=84	=84	=84
!	!LO:DY:a:t=pia.	!	!	!	!	!	!LO:DY:b:t=piano	!	!
8A\L	p	8c#/L	.	8a/L	.	8a/L	p	.	.
8A\	.	8A/	.	8cc#/J	.	8ee\J	.	.	.
8A\	.	8A/	.	16r	.	16r	.	.	.
.	.	.	.	16cc#\LL	.	16ee\LL	.	.	.
8A\	.	8A/	.	16.dd\	.	16.ff#\	.	.	.
.	.	.	.	32cc#\JJk	.	32ee\JJk	.	.	.
8A\	.	8A/	.	8ee\L	.	8aa\L	.	.	.
8A\J	.	8A/J	.	8cc#\J	.	8ee\J	.	.	.
=85	=85	=85	=85	=85	=85	=85	=85	=85	=85
8E\L	.	8e\L	.	8r	.	8r	.	.	.
8E\	.	8e\	.	8b\	.	8dd\	.	.	.
8E\	.	8e\	.	16r	.	16r	.	.	.
.	.	.	.	16b\LL	.	16dd\LL	.	.	.
8E\	.	8e\	.	16.cc#\	.	16.ee\	.	.	.
.	.	.	.	32b\JJk	.	32dd\JJk	.	.	.
8E\	.	8e\	.	8dd\L	.	8bb\L	.	.	.
8E\J	.	8e\J	.	8g#\J	.	8dd\J	.	.	.
!	!	!	!	!	!	!LO:LB:g=original	!	!	!
=86	=86	=86	=86	=86	=86	=86	=86	=86	=86
!	!	!	!	!	!	!	!	!LO:N:vis=0	!
8A\L	.	8e\L	.	8a\L	.	8cc#\L	.	1.r	.
8D\J	.	8d\J	.	8ff#\J	.	8ff#\J	.	.	.
4E\	.	4c#\	.	4e/	.	4e/	.	.	.
4EE/	.	4d\	.	4g#t/	.	4bT/	.	.	.
!	!	!	!	!LO:LB:g=original	!	!	!	!	!
=87	=87	=87	=87	=87	=87	=87	=87	=87	=87
2AA/	.	2c#\	.	4a/	.	4a/	.	.	.
.	.	.	.	2A/	.	2A/	.	.	.
!LO:TX:b:B:t=Dal Signo.	!	!LO:TX:b:B:t=Dal Segno.	!	!LO:TX:b:Bi:t=Dal Segno	!	!LO:TX:b:i:t=Del Signo	!	!LO:TX:b:i:t=Dal Segno	!
4r	.	4r	.	.	.	.	.	.	.
!LO:TX:a:t=[segno]:problem:znak segno po kresce taktowej	!	!LO:TX:a:t=[segno]:problem:znak segno po kresce taktowej i linijkę niżej	!	!LO:TX:a:t=[segno]:problem:znak segno po kresce taktowej	!	!LO:TX:a:t=[segno]:problem:znak segno po kresce taktowej	!	!LO:TX:a:t=[segno]:problem:znak segno po kresce taktowej	!
==	==	==	==	==	==	==	==	==	==
*-	*-	*-	*-	*-	*-	*-	*-	*-	*-
!!!system-decoration: s1[g1]
!!!RDF**kern: < = below
!!!ENC: Marta Lawrence
!!!END: 2020-12-01
!!!ENC: Marcin Jachim
!!!END: 2020-05-10
